dist/icons/svgs/arrow-down-solid.svg

<svg xmlns="http://www.w3.org/2000/svg" width="24" height="24" fill="currentcolor" class="icon-arrow-down-solid" viewBox="0 0 24 24">
  <path d="M11.6016 20.3984L5.35156 14.1484C4.84375 13.6797 4.84375 12.8594 5.35156 12.3906C5.82031 11.8828 6.64062 11.8828 7.10938 12.3906L11.25 16.4922V4.5C11.25 3.83594 11.7969 3.25 12.5 3.25C13.1641 3.25 13.75 3.83594 13.75 4.5V16.4922L17.8516 12.3906C18.3203 11.8828 19.1406 11.8828 19.6094 12.3906C20.1172 12.8594 20.1172 13.6797 19.6094 14.1484L13.3594 20.3984C12.8906 20.9062 12.0703 20.9062 11.6016 20.3984Z"/>
</svg>

<svg xmlns="http://www.w3.org/2000/svg" width="24" height="24" fill="currentColor" class="icon-arrow-down-solid" viewBox="0 0 24 24">
  <path d="m11.602 20.398-6.25-6.25a1.205 1.205 0 0 1 0-1.757 1.205 1.205 0 0 1 1.757 0l4.141 4.101V4.5c0-.664.547-1.25 1.25-1.25.664 0 1.25.586 1.25 1.25v11.992l4.102-4.101a1.205 1.205 0 0 1 1.757 0 1.203 1.203 0 0 1 0 1.757l-6.25 6.25a1.205 1.205 0 0 1-1.757 0"/>
</svg>
